assets/2023/icons/folderVendor_dark.svg

<!-- Copyright 2000-2023 JetBrains s.r.o. and contributors. Use of this source code is governed by the Apache 2.0 license. -->
<svg width="16" height="16" viewBox="0 0 16 16" fill="none" xmlns="http://www.w3.org/2000/svg">
<path d="M11.9367 16H13.0779L16 9H14.7207L12.5545 14.4893L10.3157 9H9L11.9367 16Z" fill="#548AF7"/>
<path d="M1 3.86667C1 2.83574 1.73127 2 2.63333 2H6.1217C6.39413 2 6.65477 2.11115 6.84336 2.30775L8.46667 4L13 4C14.1046 4 15 4.89543 15 6V8H14.0403L12.5393 11.8038L10.9878 8H7.49609L10.0132 14H2.63333C1.73127 14 1 13.1643 1 12.1333V3.86667Z" fill="#43454A"/>
<path d="M2.63333 3L6.1217 3L8.04022 5H13C13.5523 5 14 5.44771 14 6V8.10209L14.0403 8H15V6C15 4.89543 14.1046 4 13 4L8.46667 4L6.84336 2.30775C6.65477 2.11115 6.39413 2 6.1217 2H2.63333C1.73127 2 1 2.83574 1 3.86667V12.1333C1 13.1643 1.73127 14 2.63333 14H10.0132L9.59371 13H2.63333C2.40481 13 2 12.7416 2 12.1333V3.86667C2 3.25841 2.40481 3 2.63333 3Z" fill="#CED0D6"/>
</svg>

<svg xmlns="http://www.w3.org/2000/svg" width="16" height="16" fill="none" viewBox="0 0 16 16"><path fill="#548AF7" d="M11.937 16h1.14L16 9h-1.28l-2.165 5.49L10.315 9H9z"/><path fill="#43454A" d="M1 3.867C1 2.836 1.731 2 2.633 2h3.489a1 1 0 0 1 .721.308L8.467 4H13a2 2 0 0 1 2 2v2h-.96l-1.5 3.804L10.987 8H7.496l2.517 6h-7.38C1.731 14 1 13.164 1 12.133z"/><path fill="#CED0D6" d="M2.633 3h3.489L8.04 5H13a1 1 0 0 1 1 1v2.102L14.04 8H15V6a2 2 0 0 0-2-2H8.467L6.843 2.308A1 1 0 0 0 6.122 2H2.633C1.731 2 1 2.836 1 3.867v8.266C1 13.164 1.731 14 2.633 14h7.38l-.42-1h-6.96C2.405 13 2 12.742 2 12.133V3.867C2 3.258 2.405 3 2.633 3"/></svg>
